!!!OTL:
!!!ONR: No. 16
!! From Madeleine Beland,
!! "Chansons de Voyageurs, Coureurs de Bois et Forestiers"
!! Quebec: Les Presses de l'universite/ Laval, 1982
!! ISBN 2-7637-6942-X
**kern
*clefG2
*k[b-]
*M2/4
8a
*M3/4
=
4dd
8b-
8cc
8.b-
16cc
*M2/4
=
8dd
8g
8r
8b-
=
qb-
8.dd
16b-
8a
16b-
16g
=
4g
8r
8a
*M3/4
=
4dd
8b-
8cc
8.b-
16cc
*M2/4
=
8dd
8g
8r
8b-
=
qb-
8.dd
16b-
8a
16b-
16g
=
4g
8r
8dd
=
4dd
12cc
12dd
12ee
=
8ff
8cc
8xr
8cc
=
qcc
4ff
12dd
12dd
12dd
=
4b-
8r
8dd
=
4dd
12b-
12cc
12ee-
=
8dd
8g
8r
8dd
=
8cc
16r
16b-
8a
16b-
16g
=
4g;
8r
8dd
=
4dd
12cc
12dd
12ee
=
8ff
8cc
8xr
8cc
=
qcc
4ff
12dd
12dd
12dd
=
4b-
8r
8dd
=
4dd
12b-
12cc
12ee-
=
8dd
8g
8r
8dd
=
8cc
16r
16b-
8a
16b-
16g
=
4g;
8r
==
*-
